X:1
T:I wish I was Single Again
F:http://www.folkinfo.org/songs
B:Ozark Folk Songs, Randolph, Ed Norm Cohen, ISBN 0-252-00952-2
Z:Vance Randolph
S:Lottie Chapman, Anderson Mo, Apr 2, 1928
M:6/8     %Meter
L:1/8     %
K:G
D3 |D2 G GFG |D3 z2 
w:When I was sin-gle, oh then, 
D |D2 G GFG | A3 z2 
w:When I was sin-gle oh then,
D |D2 G GAB |cBc EE
w:When I was sin-gle my mon-ey did jin-gle 
E/E/ |DDD FEF | G3  |]
w:An' I wish I was sin-gle a-again. 